static/favicon.svg

<?xml version="1.0" encoding="UTF-8" standalone="no"?>
<svg
   version="1.1"
   width="55pt"
   height="55pt"
   viewBox="0 0 54.999999 55.000001"
   id="svg12"
   sodipodi:docname="favicon.svg"
   inkscape:version="1.3 (0e150ed, 2023-07-21)"
   inkscape:export-filename="favicon-32x32.png"
   inkscape:export-xdpi="41.890907"
   inkscape:export-ydpi="41.890907"
   xmlns:inkscape="http://www.inkscape.org/namespaces/inkscape"
   xmlns:sodipodi="http://sodipodi.sourceforge.net/DTD/sodipodi-0.dtd"
   xmlns="http://www.w3.org/2000/svg"
   xmlns:svg="http://www.w3.org/2000/svg">
  <sodipodi:namedview
     id="namedview12"
     pagecolor="#ffffff"
     bordercolor="#000000"
     borderopacity="0.25"
     inkscape:showpageshadow="2"
     inkscape:pageopacity="0.0"
     inkscape:pagecheckerboard="0"
     inkscape:deskcolor="#d1d1d1"
     inkscape:document-units="pt"
     inkscape:zoom="4.9557622"
     inkscape:cx="74.761456"
     inkscape:cy="26.534768"
     inkscape:window-width="1600"
     inkscape:window-height="760"
     inkscape:window-x="1700"
     inkscape:window-y="206"
     inkscape:window-maximized="0"
     inkscape:current-layer="svg12" />
  <defs
     id="defs2">
    <clipPath
       id="clip_1">
      <path
         transform="matrix(1,0,0,-1,-15.732,60.378)"
         d="M 0,0 H 340.157 V 85.039 H 0 Z"
         id="path2" />
    </clipPath>
    <clipPath
       clipPathUnits="userSpaceOnUse"
       id="clipPath13">
      <g
         id="g14">
        <path
           d="M -15.732,60.378 H 324.425 V -24.6614 H -15.732 Z"
           id="path13" />
      </g>
    </clipPath>
    <clipPath
       clipPathUnits="userSpaceOnUse"
       id="clipPath14">
      <g
         id="g15">
        <path
           d="M -15.732,60.378 H 324.425 V -24.6614 H -15.732 Z"
           id="path14" />
      </g>
    </clipPath>
    <clipPath
       clipPathUnits="userSpaceOnUse"
       id="clipPath15">
      <g
         id="g16">
        <path
           d="M -15.732,60.378 H 324.425 V -24.6614 H -15.732 Z"
           id="path15" />
      </g>
    </clipPath>
  </defs>
  <g
     clip-path="url(#clipPath14)"
     id="g11"
     transform="translate(-0.15133898,9.5343558)">
    <path
       transform="matrix(1,0,0,-1,24.7522,7.6497995)"
       d="m 0,0 c -1.975,1.277 -4.263,1.953 -6.616,1.953 -2.355,0 -4.644,-0.676 -6.62,-1.955 -0.403,-0.261 -0.663,-0.687 -0.714,-1.168 -0.052,-0.492 0.119,-0.974 0.467,-1.322 l 0.662,-0.662 c 0.314,-0.314 0.726,-0.476 1.14,-0.476 0.289,0 0.578,0.078 0.837,0.238 1.271,0.785 2.733,1.201 4.228,1.201 1.493,0 2.954,-0.415 4.224,-1.199 0.633,-0.391 1.446,-0.294 1.977,0.238 l 0.662,0.662 c 0.349,0.349 0.519,0.831 0.467,1.322 C 0.663,-0.686 0.403,-0.261 0,0"
       fill="#7f529a"
       id="path8" />
    <path
       transform="matrix(1,0,0,-1,16.2614,25.841099)"
       d="m 0,0 c -3.689,0.873 -6.266,4.13 -6.266,7.921 0,1.503 0.417,2.975 1.207,4.254 0.375,0.609 0.281,1.391 -0.23,1.901 l -0.662,0.662 c -0.335,0.336 -0.799,0.499 -1.272,0.45 -0.464,-0.05 -0.873,-0.299 -1.123,-0.687 -1.27,-1.964 -1.941,-4.24 -1.941,-6.58 0,-5.687 4.035,-10.685 9.594,-11.885 0.106,-0.023 0.212,-0.034 0.319,-0.034 0.343,0 0.68,0.118 0.956,0.341 0.37,0.299 0.583,0.744 0.583,1.219 v 0.923 C 1.165,-0.797 0.675,-0.159 0,0"
       fill="#3ea3dc"
       id="path9" />
    <path
       transform="matrix(1,0,0,-1,38.437997,5.758499)"
       d="m 0,0 c -6.706,0 -12.162,-5.456 -12.162,-12.162 l 0.006,-0.053 -0.007,-0.061 c -0.052,-3.815 -2.807,-7.124 -6.549,-7.868 -0.51,-0.101 -0.881,-0.553 -0.881,-1.072 v -1.856 c 0,-0.325 0.142,-0.632 0.391,-0.844 0.242,-0.206 0.56,-0.295 0.871,-0.244 5.905,0.966 10.19,6.013 10.19,11.999 0,4.488 3.652,8.14 8.141,8.14 4.489,0 8.141,-3.652 8.141,-8.141 0,-4.488 -3.652,-8.141 -8.141,-8.141 -1.108,0 -2.01,-0.901 -2.01,-2.01 0,-1.108 0.902,-2.01 2.01,-2.01 6.706,0 12.162,5.456 12.162,12.161 C 12.162,-5.456 6.706,0 0,0"
       fill="#7f529a"
       id="path10" />
  </g>
</svg>

<svg xmlns="http://www.w3.org/2000/svg" xmlns:xlink="http://www.w3.org/1999/xlink" version="1.1" width="55.276pt" height="35.716pt" viewBox="0 0 55.276 35.716">
<defs>
<clipPath id="clip_0">
<path transform="matrix(1,0,0,-1,-15.732,60.378)" d="M0 0H340.157V85.0394H0Z"/>
</clipPath>
<clipPath id="clip_1">
<path transform="matrix(1,0,0,-1,-15.732,60.378)" d="M0 0H340.157V85.039H0Z"/>
</clipPath>
</defs>
<g clip-path="url(#clip_0)">
<path transform="matrix(1,0,0,-1,-15.732,60.378)" d="M182.943 18.196H183.463V66.843H182.943Z" fill="#040305"/>
<g clip-path="url(#clip_1)">
<path transform="matrix(1,0,0,-1,63.6036,11.112198)" d="M0 0C.707 .692 1.504 1.203 2.392 1.535 3.279 1.865 4.175 2.031 5.077 2.031 6.19 2.031 7.25 1.789 8.259 1.309 9.266 .827 10.123 .143 10.831-.745 11.537-1.632 11.937-2.693 12.026-3.926V-4.287H-2.15C-2.043-3.721-1.904-3.189-1.715-2.707-1.279-1.595-.707-.692 0 0M15.321-6.927C15.682-6.611 15.862-6.213 15.862-5.731 15.833-4.016 15.516-2.482 14.915-1.128 14.313 .226 13.516 1.399 12.523 2.392 11.53 3.385 10.387 4.136 9.093 4.648 7.799 5.159 6.46 5.415 5.077 5.415 3.211 5.415 1.444 4.926-.225 3.949-1.895 2.971-3.249 1.557-4.287-.293-5.325-2.143-5.844-4.377-5.844-6.995-5.844-9.341-5.347-11.41-4.354-13.2-3.361-14.99-1.963-16.397-.158-17.419 1.648-18.442 3.768-18.953 6.205-18.953 7.83-18.953 9.356-18.607 10.786-17.916 12.215-17.224 13.365-16.412 14.238-15.478 14.719-15.057 14.96-14.591 14.96-14.08 14.96-13.659 14.81-13.297 14.509-12.996 14.208-12.697 13.847-12.545 13.426-12.545 13.034-12.545 12.643-12.681 12.252-12.951 11.861-13.373 11.387-13.786 10.831-14.193 10.274-14.599 9.605-14.937 8.822-15.208 8.04-15.478 7.123-15.614 6.07-15.614 4.385-15.614 2.911-15.231 1.648-14.463 .384-13.696-.602-12.651-1.309-11.327-1.923-10.177-2.269-8.869-2.35-7.401H14.057C14.538-7.401 14.96-7.243 15.321-6.927" fill="#040305"/>
<path transform="matrix(1,0,0,-1,103.3838,17.880997)" d="M0 0C0 1.745-.354 3.272-1.06 4.58-1.768 5.889-2.73 6.927-3.949 7.694-5.168 8.461-6.529 8.845-8.033 8.845-9.567 8.845-10.944 8.461-12.162 7.694-13.38 6.927-14.351 5.889-15.073 4.58-15.795 3.272-16.156 1.745-16.156 0-16.156-1.715-15.795-3.234-15.073-4.558-14.351-5.882-13.38-6.928-12.162-7.695-10.944-8.462-9.567-8.845-8.033-8.845-6.529-8.845-5.168-8.462-3.949-7.695-2.73-6.928-1.768-5.882-1.06-4.558-.354-3.234 0-1.715 0 0M3.655 0C3.655-2.347 3.137-4.438 2.098-6.273 1.06-8.108-.338-9.553-2.098-10.605-3.858-11.659-5.837-12.184-8.033-12.184-10.229-12.184-12.215-11.659-13.99-10.605-15.765-9.553-17.171-8.108-18.209-6.273-19.247-4.438-19.766-2.347-19.766 0-19.766 2.347-19.247 4.437-18.209 6.273-17.171 8.107-15.765 9.551-13.99 10.605-12.215 11.657-10.229 12.184-8.033 12.184-5.837 12.184-3.858 11.657-2.098 10.605-.338 9.551 1.06 8.107 2.098 6.273 3.137 4.437 3.655 2.347 3.655 0" fill="#040305"/>
<path transform="matrix(1,0,0,-1,111.1006,25.913899)" d="M0 0C-.241 .391-.354 .804-.339 1.241-.324 1.677-.076 2.06 .406 2.392 .737 2.602 1.105 2.692 1.512 2.662 1.917 2.632 2.286 2.437 2.617 2.076 3.459 1.083 4.422 .293 5.505-.293 6.588-.88 7.912-1.173 9.476-1.173 10.168-1.144 10.883-1.023 11.62-.813 12.357-.602 12.974-.234 13.47 .293 13.967 .819 14.215 1.519 14.215 2.392 14.215 3.234 13.959 3.904 13.448 4.4 12.936 4.896 12.267 5.302 11.44 5.618 10.612 5.935 9.732 6.212 8.799 6.453 7.807 6.724 6.829 7.024 5.866 7.356 4.903 7.686 4.039 8.116 3.272 8.642 2.505 9.168 1.888 9.83 1.421 10.628 .954 11.424 .721 12.41 .721 13.584 .721 14.937 1.09 16.111 1.827 17.104 2.564 18.097 3.549 18.864 4.784 19.405 6.017 19.946 7.385 20.217 8.89 20.217 9.732 20.217 10.612 20.119 11.53 19.924 12.447 19.728 13.342 19.397 14.215 18.931 15.087 18.464 15.855 17.825 16.516 17.013 16.787 16.712 16.937 16.337 16.968 15.885 16.998 15.433 16.802 15.027 16.381 14.666 16.05 14.425 15.681 14.313 15.276 14.328 14.869 14.343 14.531 14.486 14.26 14.756 13.598 15.539 12.794 16.133 11.845 16.539 10.898 16.946 9.853 17.149 8.709 17.149 8.017 17.149 7.326 17.036 6.634 16.81 5.941 16.584 5.362 16.231 4.896 15.749 4.429 15.268 4.196 14.591 4.196 13.719 4.227 12.906 4.497 12.244 5.009 11.733 5.52 11.221 6.212 10.808 7.085 10.492 7.957 10.176 8.919 9.868 9.973 9.567 10.936 9.326 11.86 9.048 12.748 8.732 13.635 8.417 14.441 8.003 15.163 7.491 15.885 6.979 16.456 6.325 16.878 5.528 17.299 4.73 17.509 3.73 17.509 2.527 17.509 1.143 17.118-.053 16.336-1.06 15.553-2.069 14.523-2.836 13.245-3.362 11.965-3.888 10.589-4.152 9.116-4.152 7.461-4.152 5.821-3.843 4.196-3.227 2.573-2.61 1.173-1.534 0 0" fill="#040305"/>
<path transform="matrix(1,0,0,-1,144.17871,5.696697)" d="M0 0C1.564 0 2.963-.166 4.197-.497 5.43-.828 6.408-1.279 7.13-1.85 7.852-2.422 8.213-3.069 8.213-3.791 8.213-4.212 8.078-4.603 7.808-4.964 7.536-5.325 7.16-5.506 6.679-5.506 6.288-5.506 5.964-5.423 5.709-5.257 5.453-5.092 5.213-4.896 4.987-4.671 4.761-4.445 4.452-4.227 4.062-4.017 3.7-3.836 3.174-3.678 2.482-3.542 1.789-3.407 1.098-3.34 .406-3.34-1.248-3.34-2.7-3.731-3.949-4.513-5.197-5.295-6.183-6.349-6.904-7.672-7.627-8.996-7.987-10.5-7.987-12.184-7.987-13.87-7.642-15.374-6.95-16.697-6.257-18.021-5.295-19.074-4.062-19.856-2.828-20.639-1.399-21.03 .225-21.03 1.279-21.03 2.114-20.939 2.73-20.759 3.347-20.579 3.881-20.368 4.333-20.127 4.843-19.826 5.242-19.525 5.528-19.224 5.814-18.924 6.212-18.773 6.724-18.773 7.235-18.773 7.634-18.939 7.92-19.269 8.206-19.601 8.349-20.007 8.349-20.488 8.349-21.06 7.973-21.647 7.22-22.248 6.468-22.85 5.445-23.354 4.152-23.76 2.858-24.166 1.413-24.369-.18-24.369-2.467-24.369-4.467-23.835-6.183-22.767-7.897-21.699-9.229-20.24-10.177-18.39-11.124-16.539-11.598-14.471-11.598-12.184-11.598-9.899-11.109-7.837-10.131-6.002-9.154-4.167-7.792-2.708-6.047-1.625-4.302-.542-2.287 0 0 0" fill="#040305"/>
<path transform="matrix(1,0,0,-1,24.7522,7.6497995)" d="M0 0C-1.975 1.277-4.263 1.953-6.616 1.953-8.971 1.953-11.26 1.277-13.236-.002-13.639-.263-13.899-.689-13.95-1.17-14.002-1.662-13.831-2.144-13.483-2.492L-12.821-3.154C-12.507-3.468-12.095-3.63-11.681-3.63-11.392-3.63-11.103-3.552-10.844-3.392-9.573-2.607-8.111-2.191-6.616-2.191-5.123-2.191-3.662-2.606-2.392-3.39-1.759-3.781-.946-3.684-.415-3.152L.247-2.49C.596-2.141 .766-1.659 .714-1.168 .663-.686 .403-.261 0 0" fill="#7f529a"/>
<path transform="matrix(1,0,0,-1,16.2614,25.841099)" d="M0 0C-3.689 .873-6.266 4.13-6.266 7.921-6.266 9.424-5.849 10.896-5.059 12.175-4.684 12.784-4.778 13.566-5.289 14.076L-5.951 14.738C-6.286 15.074-6.75 15.237-7.223 15.188-7.687 15.138-8.096 14.889-8.346 14.501-9.616 12.537-10.287 10.261-10.287 7.921-10.287 2.234-6.252-2.764-.693-3.964-.587-3.987-.481-3.998-.374-3.998-.031-3.998 .306-3.88 .582-3.657 .952-3.358 1.165-2.913 1.165-2.438V-1.515C1.165-.797 .675-.159 0 0" fill="#3ea3dc"/>
<path transform="matrix(1,0,0,-1,38.437997,5.758499)" d="M0 0C-6.706 0-12.162-5.456-12.162-12.162L-12.156-12.215-12.163-12.276C-12.215-16.091-14.97-19.4-18.712-20.144-19.222-20.245-19.593-20.697-19.593-21.216V-23.072C-19.593-23.397-19.451-23.704-19.202-23.916-18.96-24.122-18.642-24.211-18.331-24.16-12.426-23.194-8.141-18.147-8.141-12.161-8.141-7.673-4.489-4.021 0-4.021 4.489-4.021 8.141-7.673 8.141-12.162 8.141-16.65 4.489-20.303 0-20.303-1.108-20.303-2.01-21.204-2.01-22.313-2.01-23.421-1.108-24.323 0-24.323 6.706-24.323 12.162-18.867 12.162-12.162 12.162-5.456 6.706 0 0 0" fill="#7f529a"/>
<path transform="matrix(1,0,0,-1,259.6473,29.776099)" d="M0 0H3.387V.197L-2.236 10.359C-.8 10.907 .321 11.735 1.126 12.842 1.932 13.949 2.335 15.248 2.335 16.739 2.335 19.085 1.609 20.872 .156 22.1-1.296 23.327-3.371 23.941-6.068 23.941H-13.993V0H-10.82V9.685H-5.196ZM-10.82 21.36H-5.985C-4.319 21.349-3.045 20.948-2.162 20.157-1.28 19.366-.839 18.23-.839 16.747-.839 15.385-1.302 14.298-2.228 13.485-3.155 12.673-4.401 12.267-5.969 12.267H-10.82ZM18.958 8.772C19.78 8.131 20.192 7.224 20.192 6.051 20.192 4.878 19.748 3.952 18.86 3.272 17.972 2.592 16.695 2.253 15.028 2.253 13.241 2.253 11.814 2.672 10.745 3.511 9.676 4.349 9.142 5.492 9.142 6.939H5.968C5.968 5.547 6.355 4.302 7.127 3.206 7.9 2.11 8.999 1.247 10.424 .617 11.849-.014 13.384-.329 15.028-.329 17.561-.329 19.583 .255 21.096 1.422 22.609 2.59 23.365 4.144 23.365 6.084 23.365 7.301 23.094 8.359 22.551 9.257 22.008 10.156 21.175 10.943 20.052 11.617 18.928 12.291 17.372 12.908 15.382 13.468 13.392 14.029 11.984 14.646 11.156 15.322 10.328 15.997 9.915 16.823 9.915 17.801 9.915 19.02 10.35 19.972 11.222 20.659 12.093 21.345 13.307 21.689 14.864 21.689 16.541 21.689 17.84 21.273 18.761 20.443 19.682 19.612 20.142 18.471 20.142 17.019H23.316C23.316 18.345 22.962 19.567 22.255 20.685 21.548 21.804 20.55 22.681 19.262 23.316 17.974 23.952 16.508 24.27 14.864 24.27 12.452 24.27 10.493 23.653 8.986 22.42 7.478 21.187 6.725 19.627 6.725 17.742 6.725 16.076 7.341 14.676 8.574 13.541 9.808 12.406 11.778 11.45 14.486 10.672 16.645 10.047 18.136 9.414 18.958 8.772M41.616 13.648H31.241V21.36H43.129V23.941H28.084V0H43.293V2.582H31.241V11.066H41.616Z" fill="#7f529a"/>
</g>
<path transform="matrix(1,0,0,-1,197.4777,16.128197)" d="M0 0H-10.376V7.712H1.513V10.293H-13.533V-13.648H1.677V-11.066H-10.376V-2.582H0ZM7.399 10.293H3.962L12.825-13.648H15.62L24.5 10.293H21.047L14.206-9.455ZM41.912 0H31.537V7.712H43.425V10.293H28.38V-13.648H43.589V-11.066H31.537V-2.582H41.912Z" fill="#3ea3dc"/>
</g>
</svg>
